!!!OTL: Bai Raedder.
!!!OTL-incipit: E baai hi traeaed e redr uun e daans
!!!ARE: Europa, Mitteleuropa, Deutschland (BRD), Nordsee, Foehr
!!!YOR: 3, S. 281
!!    ????
!!!SCT: Q1071B
!!!YEM: Copyright 1995, estate of Helmut Schaffrath.
**kern	**text
*ICvox	*
!! Irregular meter.
*MX	*
*k[]	*
*a:	*
!LO:TX:a:t=Boireder alter föhring. naʒionaltanʒ.	!
{4e	E
=1	=1
4e	baai
4a	hi
4a	trääd
4a	e
=2	=2
8ccL	redr
8cc	uun
8b	.
8aJ	e
4b}	daans
{8bL	En-
8bJ	-e
=3	=3
8bL	reder
8bJ	.
4b	e
4cc	baai
4cc	e-
=4	=4
1dd}	-lik
=5	=5
{4b	Jon
4b	ſtolt
4cc	foomen
4cc	.
=6	=6
8ddL	träädr
8dd	.
8a	ham
8bJ	.
2a	naai,
=7	=7
8ccL	Jereg
8cc	.
8b	uun
8ccJ	e
2a}	daans,
=8	=8
{4cc	Stolt
4cc	an
8bL	ſös-
8g#J	.
4g#	-ber
=9	=9
1a}	lik.
==	==
!!!AGN: Hochzeits - Lied, Tanz
!! Melodievergleich zu Q0071, anderes Lied. Anhaengsel an der dritten
!!    Zeile.
!!!ONB: ESAC (Essen Associative Code) Database: BALLADE
!!!AMT: irregular
!!!AIN: vox
!!!EED: Helmut Schaffrath
!!!EEV: 1.0
!!!source: Deutsche Volkslieder mit ihren Melodien. Herausgegeben vom Deutschen Volksliedarchiv. Dritter Band Balladen. Berlin 1954.
!!!page: 281
!!!ENC: Anna Maria Matuszewska
!!!EEV: 2025/02/21
*-	*-
